X:1
T:All Taken Away
T:All Taken Away
T:Joseph Lincoln Hall
T:Jennie Morton, 1900
T:Public Domain Courtesy of the Cyber Hymnal™
C:Joseph Lincoln Hall
Z:Public Domain
Z:Courtesy of the Cyber Hymnal™
%%score ( 1 2 ) ( 3 4 )
L:1/8
Q:1/4=105
M:4/4
K:Eb
V:1 treble 
V:2 treble 
V:3 bass 
V:4 bass 
V:1
 (EF) | [EG]2 [GB]2 [GB]2 [GB]2 | [Ac]2 [Ac]2 [GB]2 (EF) | [EG]2 [EG][EG] [EG][EF] E2 | %4
w: 1.~I *|came by faith to|Calva- ry’s side, My *|sins are all tak- en a-|
w: 2.~I *|left them all be-|hind the cross, My *|sins are all tak- en a-|
w: 3.~He *|ne- ver will for-|sake His own, My *|sins are all tak- en a-|
w: 4.~And *|now I will for-|ev- er sing, “My *|sins are all tak- en a-|
 [DF]6 (EF) | [EG]2 [GB]2 [GB]2 [GB]2 | [Ac]2 [Ac]2 [GB]2 (EF) | [EG]2 [EG][EG] [DF][DF] [DF]2 | %8
w: way; And *|plunged be- neath its|crim- son tide, My *|sins are all tak- en a-|
w: way; And *|earth- ly wealth I|count but dross, My *|sins are all tak- en a-|
w: way; And *|I will see Him|on the throne, My *|sins are all tak- en a-|
w: way”; That *|Je- sus is my|Sav- ior, king, My *|sins are all tak- en a-|
 E6 ||"^Refrain" (EF) | [EG]2 [EG][EG] [EG][EF] E2 | B6 (EF) | [EG]2 [EG][EG] [GB][GB] [EG]2 | %13
w: way.|||||
w: way.|My *|sins are all tak- en a-|way, My *|sins are all tak- en a-|
w: way.|||||
w: way.|||||
 [DF]6 [AB][AB] | [Ge][Ge][Ge][Ge] [GB]2 [GB]2 | [Ac] [Ae]4- !fermata![Ae] (EF) | %16
w: |||
w: way; He will|men- tion them no more for|ev- er, * My *|
w: |||
w: |||
 [EG]2 [EG][EG] [DF][DF] [DF]2 | E6 |] %18
w: ||
w: sins are all tak- en a-|way.|
w: ||
w: ||
V:2
 E2 | x8 | x6 E2 | x6 E2 | x6 E2 | x8 | x6 E2 | x8 | E6 || E2 | x6 E2 | (E2 G2 G2) E2 | x8 | x8 | %14
 x8 | x6 E2 | x8 | E6 |] %18
V:3
 (G,A,) | [E,B,]2 [E,E]2 [E,E]2 [E,E]2 | [A,E]2 [A,E]2 [E,E]2 (G,A,) | %3
 [E,B,]2 [E,B,][E,B,] [E,B,][E,B,] [E,G,]2 | [B,,B,]6 (G,A,) | [E,B,]2 [E,E]2 [E,E]2 [E,E]2 | %6
 [A,E]2 [A,E]2 [E,E]2 (G,A,) | [E,B,]2 [E,B,][E,B,] [B,,B,][B,,B,] [B,,B,]2 | [E,G,]6 || (G,A,) | %10
 [E,B,]2 [E,B,][E,B,] [E,B,][E,B,] [E,G,]2 | (G,2 B,2 E2) (G,A,) | %12
 [E,B,]2 [E,B,][E,B,] [E,E][E,E] [E,B,]2 | ([B,,B,]2 [B,,B,]2 [B,,B,]2) [D,B,][D,B,] | %14
 [E,B,][E,B,][E,B,][E,B,] [E,E]2 [E,E]2 | [A,E] [A,C]4- [A,C] ([G,B,][F,B,]) | %16
 [E,B,]2 [E,B,][E,B,] [B,,B,][B,,B,] [B,,B,]2 | [E,G,]6 |] %18
V:4
 E,2 | x8 | x6 E,2 | x8 | x6 E,2 | x8 | x6 E,2 | x8 | x6 || E,2 | x8 | E,6 E,2 | x8 | x8 | x8 | %15
 x8 | x8 | x6 |] %18

